public/western-piece-design/knight.svg

<?xml version="1.0" encoding="UTF-8" standalone="no"?>
<svg
   version="1.1"
   width="32"
   height="32"
   id="svg13"
   sodipodi:docname="knight.svg"
   inkscape:version="1.3 (0e150ed6c4, 2023-07-21)"
   xmlns:inkscape="http://www.inkscape.org/namespaces/inkscape"
   xmlns:sodipodi="http://sodipodi.sourceforge.net/DTD/sodipodi-0.dtd"
   xmlns="http://www.w3.org/2000/svg"
   xmlns:svg="http://www.w3.org/2000/svg">
  <sodipodi:namedview
     id="namedview13"
     pagecolor="#ffffff"
     bordercolor="#000000"
     borderopacity="0.25"
     inkscape:showpageshadow="2"
     inkscape:pageopacity="0.0"
     inkscape:pagecheckerboard="0"
     inkscape:deskcolor="#d1d1d1"
     inkscape:zoom="5.6568543"
     inkscape:cx="12.904699"
     inkscape:cy="28.726213"
     inkscape:window-width="1920"
     inkscape:window-height="974"
     inkscape:window-x="-11"
     inkscape:window-y="-11"
     inkscape:window-maximized="1"
     inkscape:current-layer="svg13" />
  <defs
     id="defs1">
    <style
       id="style1">&#10;      g {&#10;        stroke-width: 1.3;&#10;        stroke: black;&#10;        fill: none;&#10;      }&#10;    </style>
  </defs>
  <!-- cannon -->
  <!-- guard -->
  <!-- elephant -->
  <!-- knight -->
  <!-- pawn -->
  <!-- rook -->
  <!-- general -->
  <g
     transform="matrix(-0.38754532,1.0789004,-1.0647721,-0.3926877,58.196814,-12.093006)"
     id="g9"
     style="fill:#000000;stroke:none;stroke-width:1.13975146;stroke-dasharray:none;fill-opacity:1">
    <path
       style="color:#000000;fill:#000000;stroke:none;stroke-width:1.13975146;stroke-linejoin:round;stroke-dasharray:none;fill-opacity:1"
       d="m 35.408203,14.134766 c -0.628574,0.08713 -1.295119,0.388747 -1.919922,0.96289 a 0.65006498,0.65006498 0 0 0 -0.152344,0.208985 l -3.396484,7.476562 H 27.5 a 0.65006498,0.65006498 0 0 0 -0.648438,0.683594 c 0.102107,2.053734 0.3829,3.840511 0.826172,5.388672 l 1.25,-0.357422 c -0.35536,-1.241121 -0.549518,-2.771286 -0.673828,-4.414063 h 2.103516 a 0.65006498,0.65006498 0 0 0 0.591797,-0.380859 l 3.49414,-7.691406 c 0.902584,-0.790733 1.501034,-0.730303 1.982422,-0.4375 0.496833,0.302196 0.815154,1.007571 0.783203,1.375 a 0.65006498,0.65006498 0 0 0 0.0039,0.136718 l 0.71289,5.714844 a 0.65006498,0.65006498 0 0 0 1.146485,0.333985 c 2.043785,-2.462496 3.37461,-3.405186 5.255859,-4.732422 l 5.201172,14.298828 c -3.768762,1.733682 -7.604056,2.896443 -10.916016,2.90625 -3.473337,0.01028 -6.327137,-1.127206 -8.216797,-4.039063 l -1.089843,0.708985 c 2.137916,3.294407 5.537961,4.640077 9.310546,4.628906 3.772586,-0.01117 7.963613,-1.308921 12.019532,-3.242188 A 0.65006498,0.65006498 0 0 0 50.96875,32.853516 L 45.253906,17.140625 a 0.65006498,0.65006498 0 0 0 -0.988281,-0.308594 c -1.955807,1.389445 -3.404462,2.499253 -5.216797,4.470703 l -0.546875,-4.378906 0.002,0.136719 c 0.0871,-1.00162 -0.455725,-2.021879 -1.402344,-2.597656 C 36.6283,14.175002 36.036824,14.047638 35.40825,14.134766 Z"
       id="path51" />
    <g
       id="circle8"
       style="stroke:none;stroke-width:1.13975146;stroke-dasharray:none;fill:#000000;fill-opacity:1">
      <path
         style="color:#000000;fill:#000000;stroke:none;stroke-width:1.13975146;stroke-dasharray:none;fill-opacity:1"
         d="M 34.1,24 A 0.60000002,0.60000002 0 0 1 33.5,24.6 0.60000002,0.60000002 0 0 1 32.9,24 0.60000002,0.60000002 0 0 1 33.5,23.4 0.60000002,0.60000002 0 0 1 34.1,24 Z"
         id="path50" />
      <path
         style="color:#000000;fill:#000000;stroke:none;stroke-width:1.13975146;stroke-dasharray:none;fill-opacity:1"
         d="m 33.5,22.75 c -0.682656,0 -1.25,0.567344 -1.25,1.25 0,0.682656 0.567344,1.25 1.25,1.25 0.682656,0 1.25,-0.567344 1.25,-1.25 0,-0.682656 -0.567344,-1.25 -1.25,-1.25 z m 0,1.199219 c 0.01991,0 0.05078,0.03087 0.05078,0.05078 0,0.01992 -0.03087,0.05078 -0.05078,0.05078 -0.01991,0 -0.05078,-0.03087 -0.05078,-0.05078 0,-0.01992 0.03087,-0.05078 0.05078,-0.05078 z"
         id="path49" />
    </g>
    <path
       style="color:#000000;fill:#000000;stroke:none;stroke-width:1.13975146;stroke-dasharray:none;fill-opacity:1"
       d="m 31.876953,26.736328 -8.232422,2.337891 0.691406,0.773437 c 2.071448,2.321149 5.894263,3.279968 9.117188,2.521485 l -0.298828,-1.265625 c -2.331681,0.548738 -5.125228,-0.08788 -6.935547,-1.408204 l 6.011719,-1.707031 z"
       id="path48" />
  </g>
</svg>

<?xml version="1.0" encoding="UTF-8" standalone="no"?>
<svg
   version="1.1"
   width="32"
   height="32"
   id="svg13"
   sodipodi:docname="knight.svg"
   inkscape:version="1.3 (0e150ed6c4, 2023-07-21)"
   xmlns:inkscape="http://www.inkscape.org/namespaces/inkscape"
   xmlns:sodipodi="http://sodipodi.sourceforge.net/DTD/sodipodi-0.dtd"
   xmlns="http://www.w3.org/2000/svg"
   xmlns:svg="http://www.w3.org/2000/svg">
  <sodipodi:namedview
     id="namedview13"
     pagecolor="#ffffff"
     bordercolor="#000000"
     borderopacity="0.25"
     inkscape:showpageshadow="2"
     inkscape:pageopacity="0.0"
     inkscape:pagecheckerboard="0"
     inkscape:deskcolor="#d1d1d1"
     inkscape:zoom="22.627417"
     inkscape:cx="19.357048"
     inkscape:cy="16.197165"
     inkscape:window-width="1920"
     inkscape:window-height="974"
     inkscape:window-x="-11"
     inkscape:window-y="-11"
     inkscape:window-maximized="1"
     inkscape:current-layer="g9" />
  <defs
     id="defs1">
    <style
       id="style1">&#10;      g {&#10;        stroke-width: 1.3;&#10;        stroke: black;&#10;        fill: none;&#10;      }&#10;    </style>
  </defs>
  <!-- cannon -->
  <!-- guard -->
  <!-- elephant -->
  <!-- knight -->
  <!-- pawn -->
  <!-- rook -->
  <!-- general -->
  <g
     transform="matrix(-0.38754532,1.0789004,-1.0647721,-0.3926877,58.196814,-12.093006)"
     id="g9"
     style="fill:#000000;stroke:none;stroke-width:1.13975146;stroke-dasharray:none;fill-opacity:1">
    <path
       id="path51"
       style="color:#000000;fill:#000000;stroke:none;stroke-width:1.13975146;stroke-linejoin:round;stroke-dasharray:none;fill-opacity:1"
       d="M 23.6445 29.074134 L 24.335319 29.848077 C 25.577869 31.24041 27.45113 32.140968 29.446538 32.476309 C 31.591042 35.622401 34.923324 36.917756 38.617082 36.906819 C 42.389664 36.895649 46.581379 35.596856 50.637294 33.663591 A 0.65006498 0.65006498 45 0 0 50.968719 32.85326 L 45.253408 17.14063 A 0.65006498 0.65006498 45 0 0 44.265129 16.832644 C 42.309324 18.222088 40.861556 19.331337 39.049223 21.302785 L 38.504727 16.95187 C 38.545131 15.985691 38.013687 15.018589 37.101239 14.463596 C 36.627931 14.175707 36.03708 14.047901 35.408507 14.135029 C 34.779933 14.222159 34.113648 14.523727 33.488845 15.09787 A 0.65006498 0.65006498 45 0 0 33.336362 15.305617 L 29.938941 22.782509 L 27.500388 22.782262 A 0.65006498 0.65006498 45 0 0 26.851365 23.46606 C 26.935047 25.149211 27.140946 26.651314 27.455744 27.991451 L 23.6445 29.074134 z M 26.218308 29.694676 L 32.230364 27.988891 L 31.877559 26.736064 L 28.715839 27.633701 C 28.490975 26.573929 28.351426 25.363378 28.254572 24.083436 L 30.35689 24.084998 A 0.65006498 0.65006498 45 0 0 30.949047 23.702548 L 34.444341 16.012105 C 35.346924 15.221373 35.944801 15.280453 36.426188 15.573256 C 36.923021 15.875452 37.24104 16.580928 37.209089 16.948356 A 0.65006498 0.65006498 45 0 0 37.212332 17.086584 L 37.925565 22.801345 A 0.65006498 0.65006498 45 0 0 39.071453 23.13451 C 41.115236 20.672016 42.446414 19.729302 44.327661 18.402068 L 49.528305 32.700666 C 45.759547 34.434347 41.925076 35.597926 38.613119 35.607733 C 35.596132 35.616663 33.047574 34.7582 31.191295 32.624521 C 31.957813 32.625305 32.721572 32.542004 33.453737 32.369697 L 33.153853 31.103111 C 30.822175 31.651848 28.028625 31.014999 26.218308 29.694676 z M 32.325953 24.426716 C 32.50297 24.903729 32.966782 25.250361 33.500106 25.250361 C 34.182761 25.250361 34.750061 24.681978 34.750061 23.999323 C 34.750061 23.316668 34.183282 22.750003 33.500627 22.750003 C 32.817972 22.750003 32.250083 23.316766 32.250083 23.999421 C 32.250083 24.148752 32.276388 24.293153 32.325953 24.426716 z " />
  </g>
</svg>
